X:1
T:Title
%%score { 1 | 2 }
L:1/8
M:6/8
K:F
V:1 treble nm="Grand Piano"
V:2 bass 
V:1
 z3 z2[Q:1/4=87] c | cdc AGF | cdc A2 F | [EG][EA][EB] EFG | F3- F2 c | cdc AGF |[M:5/8] cdc A2 | %7
[M:1/8] A |[M:3/4] GA =Bc ed | [Ec]4- [Ec][Ec] | [Ec][EG] [EA][EB] [EA][EG] | FF D C2 C | %12
 FG AA GF | [EG]4- [EG][Ec] | [Ec][EG] [EA][EB] [EA][EG] | FF D C2 C | FG A[DFB] [CFA][B,CG] | %17
[M:5/8] [A,CF]-[A,CF]- [A,CF]3 |[M:1/8] [A,CF] |[M:3/4] [EG][EG] [EG]G FE | FF G A2 A | BB B=B BB | %22
 [Ec]4- [Ec][Ec] | [Fc][DFB] [CFA][CFA] [CEG][C_EF] |[M:7/8] [B,D][DF][DB] [Fd]3 d | %25
[M:3/4] cB A[DG] FE |[M:5/8] F-F- F3 |] %27
V:2
 z3 z2 [F,A,F] | [F,A,F][F,B,F][F,A,F] [F,CF][F,B,C][F,A,C] | %2
 [F,A,F][F,B,F][F,A,F] [F,CF]2 [F,A,C] | [C,B,][C,A,][C,G,] [C,G,C][C,A,C][C,B,C] | %4
 [F,A,C]3- [F,A,C]2 [F,A,F] | [F,A,F][F,B,F][F,A,F] [F,CF][F,B,C][F,A,C] | %6
[M:5/8][K:treble] [F,A,F][F,B,F][F,A,F] [F,CF]2 |[M:1/8] [F,CF] | %8
[M:3/4] [G,B,F][G,CF] [G,DF][G,CE] [G,CG][G,B,F] | [C,C]4- [C,C][C,G,] | %10
 [C,G,][C,B,] [C,A,][C,G,] [C,A,][C,B,] | [F,A,][F,A,C] [F,B,] [F,A,]2 [F,A,] | %12
 [F,A,C][F,B,C] [F,CF][F,CF] [F,B,C][F,A,C] | [C,C]4- [C,C][C,G,] | %14
 [C,G,][C,B,] [C,A,][C,G,] [C,A,][C,B,] | [F,A,][F,A,C] [F,B,] [F,A,]2 [F,A,] | %16
 [F,A,C][F,B,C] [F,CF]B,, C,C, |[M:5/8] F,-F,- F,3 |[M:1/8] F, | %19
[M:3/4] [C,C][C,C] [C,C][C,B,C] [C,A,C][C,G,C] | [F,A,C][F,A,C] [F,B,C][K:treble] [F,CF]2 [F,CF] | %21
 [B,DF][B,DF] [B,DF][G,DF] [G,DF][G,DF] | [C,C]4- [C,C][C,B,] | [F,A,]F, F,F,, G,,A,, | %24
[M:7/8] B,,[B,,B,][B,,B,] [B,,B,]3[K:treble] [B,F] | %25
[M:3/4] [A,CF][K:bass][G,CE] [F,CF][B,,B,] [C,A,C][C,G,C] |[M:5/8] [F,A,C]-[F,A,C]- [F,A,C]3 |] %27

